X: 6
T:Teddy O'Neill
M:6/8
L:1/8
S:Rice-Walsh manuscript
R:Air
K:D
"Andante"F/2G/2|Aff f2 e/2f/2|gBe dcB|Add dcd|fee e2 F/2G/2|
Aff f2 e/2f/2|gBe dcB|Adf a2 g/2f/2|e<ac d3||
eee e2 d/2e/2|gBe dcB|Add dcd|fee e2 F/2G/2|
Aff f2 e/2f/2|gBe dcB|Adf a2 g/2f/2|e<ac d2||

